X:202
T: MORGEN WILL MEIN SCHATZ ABREISEN
N: E0782B
O: Europa, Mitteleuropa, Deutschland, Westfalen, Paderborn
R: Abschieds - Lied, Liebe
M: 2/4
L: 1/16
K: F
c3B | A2A2cBAB | c2fd
c3B | A2A2cBAB | c2z2
A3c | cBBAG3B | Acfc
A3c | cBBAGABG | F4

